public/images/icons/board-users.svg

<svg width="60" height="60" viewBox="0 0 60 60" fill="none" xmlns="http://www.w3.org/2000/svg">
<g clip-path="url(#clip0_1132_1166)">
<mask id="mask0_1132_1166" style="mask-type:luminance" maskUnits="userSpaceOnUse" x="0" y="0" width="60" height="60">
<path d="M0 0.000175476H59.9998V60H0V0.000175476Z" fill="white"/>
</mask>
<g mask="url(#mask0_1132_1166)">
<path d="M42.5367 28.9134C42.5367 30.4288 41.627 31.6572 40.5047 31.6572C39.3824 31.6572 38.7305 30.2464 38.7305 28.7311C38.7305 27.2157 39.3824 26.1695 40.5047 26.1695C41.627 26.1695 42.5367 27.3979 42.5367 28.9134Z" fill="#E8916F"/>
<path d="M55.3145 28.9134C55.3145 30.4288 56.2242 31.6572 57.3465 31.6572C58.4688 31.6572 59.1207 30.2464 59.1207 28.7311C59.1207 27.2157 58.4688 26.1695 57.3465 26.1695C56.2242 26.1695 55.3145 27.3979 55.3145 28.9134Z" fill="#D98868"/>
<path d="M50.998 44.0715H46.8535V37.4198H50.998V44.0715Z" fill="#D98868"/>
<path d="M41.4658 31.4562V25.8348C41.4658 21.9466 44.6178 18.7946 48.5061 18.7946H49.3456C53.2338 18.7946 56.3857 21.9466 56.3857 25.8348V31.4562C56.3857 35.5763 53.0458 38.9163 48.9258 38.9163C44.8058 38.9163 41.4658 35.5763 41.4658 31.4562Z" fill="#EBAD88"/>
<path d="M49.3457 18.7946H48.5062C48.2309 18.7952 47.9559 18.8118 47.6826 18.8443C51.1825 19.2537 53.8993 22.2362 53.8993 25.8568V31.433C53.8993 35.1408 51.2108 38.2184 47.6826 38.8122C48.0935 38.8814 48.5093 38.9162 48.926 38.9163C53.046 38.9163 56.386 35.5659 56.386 31.433V25.8568C56.386 21.9565 53.2339 18.7946 49.3457 18.7946Z" fill="#E8916F"/>
<path d="M58.6234 48.9854V50.3906H39.2275V48.9854C39.2275 44.8996 42.0962 41.5874 45.6351 41.5874H52.2159C55.7548 41.5874 58.6234 44.8996 58.6234 48.9854Z" fill="#47D5E6"/>
<path d="M52.2158 41.5874H48.7002C52.239 41.5874 55.1078 44.8996 55.1078 48.9854V50.3906H58.6234V48.9854C58.6234 44.8996 55.7546 41.5874 52.2158 41.5874Z" fill="#22C0D4"/>
<path d="M45.8193 41.5874H52.0318L48.9255 50.3906L45.8193 41.5874Z" fill="#DCDFE8"/>
<path d="M48.9257 50.3906L46.6407 40.7455L44.1406 41.5874V45.3051L48.9257 50.3906ZM48.9257 50.3906L51.2108 40.7455L53.7108 41.5874V45.3051L48.9257 50.3906Z" fill="#20B5C7"/>
<path d="M41.4341 27.3504C41.4341 27.3504 42.0548 27.6015 42.692 26.4025C43.4206 25.031 45.3409 24.2652 47.6421 24.3487C50.4977 24.4522 51.6704 23.4439 52.2377 22.431C53.0222 25.031 54.1259 24.3487 54.8432 26.5662C55.2547 27.8377 56.3332 27.3504 56.3332 27.3504C56.3332 27.3504 59.3014 25.624 57.7716 22.8829C58.0343 17.3744 53.7279 17.0481 53.7279 17.0481C53.7279 17.0481 51.7597 14.5407 46.3644 15.845C38.5789 17.7269 39.9611 23.2146 39.9611 23.2146C39.9611 23.2146 38.6223 25.8141 41.4341 27.3504Z" fill="#FFD659"/>
<path d="M57.7713 22.8829C58.0341 17.3744 53.7276 17.048 53.7276 17.048C53.7276 17.048 52.0199 14.8763 47.4307 15.6289C48.4164 15.8285 49.1103 16.1814 49.5584 16.4853C50.0331 16.8074 50.5484 17.0652 51.0909 17.2518C52.3354 17.6792 54.4417 18.981 54.2556 22.8829C54.8606 23.9669 54.7611 24.8912 54.421 25.6138C54.5715 25.8614 54.7136 26.1661 54.843 26.5661C55.2543 27.8377 56.3329 27.3504 56.3329 27.3504C56.3329 27.3504 59.301 25.624 57.7713 22.8829Z" fill="#FFBD54"/>
<path d="M13.1464 44.0715H9.00195V37.4198H13.1464V44.0715Z" fill="#D98868"/>
<path d="M3.61426 31.4562V25.8348C3.61426 21.9466 6.76624 18.7946 10.6545 18.7946H11.494C15.3822 18.7946 18.5342 21.9466 18.5342 25.8348V31.4562C18.5342 35.5763 15.1942 38.9163 11.0743 38.9163C6.95421 38.9163 3.61426 35.5763 3.61426 31.4562Z" fill="#EBAD88"/>
<path d="M11.4942 18.7946H10.6546C10.3794 18.7952 10.1044 18.8118 9.83105 18.8443C13.331 19.2537 16.0477 22.2362 16.0477 25.8568V31.433C16.0477 35.1408 13.3592 38.2184 9.83105 38.8122C10.2419 38.8814 10.6578 38.9162 11.0744 38.9163C15.1945 38.9163 18.5344 35.5659 18.5344 31.433V25.8568C18.5344 21.9565 15.3823 18.7946 11.4942 18.7946Z" fill="#E8916F"/>
<path d="M20.7719 48.9854V50.3906H1.37598V48.9854C1.37598 44.8996 4.2446 41.5874 7.78354 41.5874H14.3643C17.9032 41.5874 20.7719 44.8996 20.7719 48.9854Z" fill="#FF2C5C"/>
<path d="M14.3642 41.5874H10.8486C14.3875 41.5874 17.2562 44.8996 17.2562 48.9854V50.3906H20.7718V48.9854C20.7718 44.8996 17.9031 41.5874 14.3642 41.5874Z" fill="#E62753"/>
<path d="M7.96777 41.5874H14.1802L11.0739 50.3906L7.96777 41.5874Z" fill="#DCDFE8"/>
<path d="M11.0742 50.3906L8.78913 40.7455L6.28906 41.5874V45.3051L11.0742 50.3906ZM11.0742 50.3906L13.3592 40.7455L15.8593 41.5874V45.3051L11.0742 50.3906Z" fill="#D6244D"/>
<path d="M12.5168 22.4356C12.5168 22.4356 8.16232 24.3967 6.65846 26.9297C4.58999 30.4132 4.62901 34.0103 3.50964 37.4207C3.50964 37.4207 0.878906 33.7713 0.878906 29.941C0.878906 13.5057 12.8761 15.4955 13.4117 16.744C15.8315 15.7296 20.6835 17.8265 20.6835 27.4544C20.6835 32.4087 20.0872 35.7129 18.4489 37.7344C18.4489 37.7344 17.4432 33.4352 17.0197 29.734C16.244 22.9561 12.5168 22.4356 12.5168 22.4356Z" fill="#FFD659"/>
<path d="M13.412 16.744C13.1963 16.2412 11.1214 15.6185 8.71973 16.1273C9.14465 16.2309 9.46609 16.4964 9.85937 17.1979C10.3834 18.1328 11.1664 18.9016 12.1375 19.3504C14.7512 20.5587 16.3996 23.0814 17.184 27.4544C17.3691 28.4866 17.1569 29.4771 17.0992 30.3816C17.5567 33.9184 18.4492 37.7344 18.4492 37.7344C20.0875 35.7129 20.6839 32.4088 20.6839 27.4544C20.6839 17.8266 15.8318 15.7297 13.412 16.744Z" fill="#FFBD54"/>
<path d="M20.9672 24.3394C20.9672 26.4751 19.6809 28.2065 18.0943 28.2065C16.5076 28.2065 15.5859 26.2181 15.5859 24.0824C15.5859 21.9466 16.5076 20.4722 18.0943 20.4722C19.6809 20.4722 20.9672 22.2035 20.9672 24.3394Z" fill="#E8916F"/>
<path d="M39.0322 24.3394C39.0322 26.4751 40.3185 28.2065 41.9051 28.2065C43.4918 28.2065 44.4135 26.2181 44.4135 24.0824C44.4135 21.9466 43.4918 20.4722 41.9051 20.4722C40.3185 20.4722 39.0322 22.2035 39.0322 24.3394Z" fill="#D98868"/>
<path d="M32.9297 45.7031H27.0703V36.3282H32.9297V45.7031Z" fill="#D98868"/>
<path d="M19.4531 27.8907V20.0316C19.4531 14.5345 23.9094 10.0782 29.4065 10.0782H30.5934C36.0905 10.0782 40.5468 14.5345 40.5468 20.0316V27.8907C40.5468 33.7156 35.8249 38.4375 30 38.4375C24.1751 38.4375 19.4531 33.7156 19.4531 27.8907Z" fill="#EBAD88"/>
<path d="M30.5934 10.0782H29.4064C29.0123 10.0782 28.6243 10.1036 28.2422 10.1483C33.1902 10.7252 37.0312 14.9286 37.0312 20.0316V27.8907C37.0312 33.1165 33.2301 37.4538 28.2422 38.2909C28.823 38.3884 29.411 38.4375 30 38.4375C35.8248 38.4375 40.5468 33.7156 40.5468 27.8907V20.0316C40.5468 14.5345 36.0906 10.0782 30.5934 10.0782Z" fill="#E8916F"/>
<path d="M43.7109 52.6289V54.6094H16.2891V52.6289C16.2891 46.8703 20.3448 42.2022 25.3481 42.2022H34.6518C39.6551 42.2022 43.7109 46.8703 43.7109 52.6289Z" fill="#685C79"/>
<path d="M34.6514 42.2022H31.1357C36.139 42.2022 40.1948 46.8702 40.1948 52.6289V54.6094H43.7104V52.6289C43.7104 46.8702 39.6547 42.2022 34.6514 42.2022Z" fill="#594F69"/>
<path d="M25.6084 42.2022H34.3915L30 54.6094L25.6084 42.2022Z" fill="#FFD659"/>
<path d="M29.9995 54.6094L26.769 41.0157L23.2344 42.2022V47.4417L24.9485 48.6849V50.9381L29.9995 54.6094ZM29.9995 54.6094L33.23 41.0157L36.7646 42.2022V47.4417L35.0505 48.6849V50.9381L29.9995 54.6094Z" fill="#50475E"/>
<path d="M19.4078 22.1366C19.4078 22.1366 20.2853 22.4905 21.1861 20.8005C22.2164 18.8677 24.931 17.7884 28.1846 17.906C32.2218 18.052 33.8797 16.6308 34.6818 15.2032C35.7911 18.8677 37.3514 17.906 38.3656 21.0312C38.9471 22.8234 40.4721 22.1366 40.4721 22.1366C40.4721 22.1366 44.6684 19.7034 42.5056 15.8402C42.8771 8.07644 36.7887 7.6166 36.7887 7.6166C36.7887 7.6166 34.006 4.0827 26.3781 5.92078C15.3711 8.5732 17.3254 16.3078 17.3254 16.3078C17.3254 16.3078 15.4326 19.9713 19.4078 22.1366Z" fill="#6E4124"/>
<path d="M42.5055 15.84C42.8771 8.0763 36.7886 7.61634 36.7886 7.61634C36.7886 7.61634 34.5733 4.80374 28.6787 5.50264C31.9633 5.95358 33.273 7.61634 33.273 7.61634C33.273 7.61634 39.3615 8.0763 38.9899 15.84C40.2651 18.1177 39.3296 19.898 38.3471 20.9759C38.3532 20.9943 38.3594 21.0124 38.3655 21.0311C38.9471 22.8231 40.472 22.1363 40.472 22.1363C40.472 22.1363 44.6683 19.7033 42.5055 15.84Z" fill="#633A21"/>
</g>
</g>
<defs>
<clipPath id="clip0_1132_1166">
<rect width="60" height="60" fill="white"/>
</clipPath>
</defs>
</svg>

<svg xmlns="http://www.w3.org/2000/svg" width="60" height="60" fill="none" xmlns:v="https://vecta.io/nano"><g clip-path="url(#B)"><mask id="A" maskUnits="userSpaceOnUse" x="0" y="0" width="60" height="60"><path d="M0 0h60v60H0V0z" fill="#fff"/></mask><g mask="url(#A)"><path d="M42.537 28.913c0 1.515-.91 2.744-2.032 2.744s-1.774-1.411-1.774-2.926.652-2.562 1.774-2.562 2.032 1.228 2.032 2.744z" fill="#e8916f"/><path d="M55.315 28.913c0 1.515.91 2.744 2.032 2.744s1.774-1.411 1.774-2.926-.652-2.562-1.774-2.562-2.032 1.228-2.032 2.744zm-4.317 15.159h-4.145V37.42h4.145v6.652z" fill="#d98868"/><use href="#C" fill="#ebad88"/><use href="#D" fill="#e8916f"/><path d="M58.623 48.985v1.405H39.228v-1.405c0-4.086 2.869-7.398 6.408-7.398h6.581c3.539 0 6.407 3.312 6.407 7.398z" fill="#47d5e6"/><path d="M52.216 41.587H48.7c3.539 0 6.408 3.312 6.408 7.398v1.405h3.516v-1.405c0-4.086-2.869-7.398-6.408-7.398z" fill="#22c0d4"/><use href="#E" fill="#dcdfe8"/><use href="#F" fill="#20b5c7"/><path d="M41.434 27.35s.621.251 1.258-.948c.729-1.372 2.649-2.137 4.95-2.054 2.856.104 4.028-.905 4.596-1.918.785 2.6 1.888 1.918 2.606 4.135.411 1.272 1.49.784 1.49.784s2.968-1.726 1.438-4.468c.263-5.508-4.044-5.835-4.044-5.835s-1.968-2.507-7.363-1.203c-7.786 1.882-6.403 7.37-6.403 7.37s-1.339 2.599 1.473 4.136z" fill="#ffd659"/><path d="M57.771 22.883c.263-5.508-4.044-5.835-4.044-5.835s-1.708-2.172-6.297-1.419c.986.2 1.68.553 2.128.856a6.49 6.49 0 0 0 1.532.767c1.245.427 3.351 1.729 3.165 5.631.605 1.084.505 2.008.165 2.731.151.248.293.552.422.952.411 1.272 1.49.784 1.49.784s2.968-1.726 1.438-4.468z" fill="#ffbd54"/><path d="M13.146 44.072H9.002V37.42h4.144v6.652z" fill="#d98868"/><path d="M3.614 31.456v-5.621a7.04 7.04 0 0 1 7.04-7.04h.839a7.04 7.04 0 0 1 7.04 7.04v5.621a7.46 7.46 0 1 1-14.92 0z" fill="#ebad88"/><path d="M11.494 18.795h-.84c-.275.001-.55.017-.824.05 3.5.409 6.217 3.392 6.217 7.012v5.576a7.48 7.48 0 0 1-6.217 7.379c.411.069.827.104 1.243.104 4.12 0 7.46-3.35 7.46-7.483v-5.576c0-3.9-3.152-7.062-7.04-7.062z" fill="#e8916f"/><path d="M20.772 48.985v1.405H1.376v-1.405c0-4.086 2.869-7.398 6.408-7.398h6.581c3.539 0 6.408 3.312 6.408 7.398z" fill="#ff2c5c"/><path d="M14.364 41.587h-3.516c3.539 0 6.408 3.312 6.408 7.398v1.405h3.516v-1.405c0-4.086-2.869-7.398-6.408-7.398z" fill="#e62753"/><path d="M7.968 41.587h6.212l-3.106 8.803-3.106-8.803z" fill="#dcdfe8"/><path d="M11.074 50.391l-2.285-9.645-2.5.842v3.718l4.785 5.085zm0 0l2.285-9.645 2.5.842v3.718l-4.785 5.085z" fill="#d6244d"/><path d="M12.517 22.436s-4.354 1.961-5.858 4.494C4.59 30.413 4.629 34.01 3.51 37.421c0 0-2.631-3.649-2.631-7.48 0-16.435 11.997-14.445 12.533-13.197 2.42-1.014 7.272 1.082 7.272 10.71 0 4.954-.596 8.258-2.235 10.28 0 0-1.006-4.299-1.429-8-.776-6.778-4.503-7.298-4.503-7.298z" fill="#ffd659"/><path d="M13.412 16.744c-.216-.503-2.291-1.126-4.692-.617.425.104.746.369 1.14 1.071.524.935 1.307 1.704 2.278 2.153 2.614 1.208 4.262 3.731 5.047 8.104.185 1.032-.027 2.023-.085 2.927.457 3.537 1.35 7.353 1.35 7.353 1.638-2.022 2.235-5.326 2.235-10.28 0-9.628-4.852-11.725-7.272-10.71z" fill="#ffbd54"/><path d="M20.967 24.339c0 2.136-1.286 3.867-2.873 3.867s-2.508-1.988-2.508-4.124.922-3.61 2.508-3.61 2.873 1.731 2.873 3.867z" fill="#e8916f"/><path d="M39.032 24.339c0 2.136 1.286 3.867 2.873 3.867s2.508-1.988 2.508-4.124-.922-3.61-2.508-3.61-2.873 1.731-2.873 3.867zM32.93 45.703h-5.86v-9.375h5.859v9.375z" fill="#d98868"/><path d="M19.453 27.891v-7.859c0-5.497 4.456-9.953 9.953-9.953h1.187c5.497 0 9.953 4.456 9.953 9.953v7.859A10.55 10.55 0 0 1 30 38.438a10.55 10.55 0 0 1-10.547-10.547z" fill="#ebad88"/><path d="M30.593 10.078h-1.187a10.01 10.01 0 0 0-1.164.07c4.948.577 8.789 4.78 8.789 9.883v7.859a10.55 10.55 0 0 1-8.789 10.4 10.62 10.62 0 0 0 1.758.147 10.55 10.55 0 0 0 10.547-10.547v-7.859c0-5.497-4.456-9.953-9.953-9.953z" fill="#e8916f"/><path d="M43.711 52.629v1.98H16.289v-1.98c0-5.759 4.056-10.427 9.059-10.427h9.304c5.003 0 9.059 4.668 9.059 10.427z" fill="#685c79"/><path d="M34.651 42.202h-3.516c5.003 0 9.059 4.668 9.059 10.427v1.98h3.516v-1.98c0-5.759-4.056-10.427-9.059-10.427z" fill="#594f69"/><path d="M25.608 42.202h8.783L30 54.609l-4.392-12.407z" fill="#ffd659"/><path d="M30 54.609l-3.231-13.594-3.535 1.186v5.24l1.714 1.243v2.253L30 54.609zm0 0l3.23-13.594 3.535 1.186v5.24l-1.714 1.243v2.253L30 54.609z" fill="#50475e"/><path d="M19.408 22.137s.877.354 1.778-1.336c1.03-1.933 3.745-3.012 6.999-2.895 4.037.146 5.695-1.275 6.497-2.703 1.109 3.664 2.67 2.703 3.684 5.828.581 1.792 2.106 1.105 2.106 1.105s4.196-2.433 2.034-6.296c.371-7.764-5.717-8.224-5.717-8.224s-2.783-3.534-10.411-1.696c-11.007 2.652-9.053 10.387-9.053 10.387s-1.893 3.663 2.082 5.829z" fill="#6e4124"/><path d="M42.506 15.84c.372-7.764-5.717-8.224-5.717-8.224s-2.215-2.813-8.11-2.114c3.285.451 4.594 2.114 4.594 2.114s6.088.46 5.717 8.224c1.275 2.278.34 4.058-.643 5.136l.018.055c.582 1.792 2.107 1.105 2.107 1.105s4.196-2.433 2.033-6.296z" fill="#633a21"/></g></g><defs><clipPath id="B"><path fill="#fff" d="M0 0h60v60H0z"/></clipPath><path id="C" d="M41.466 31.456v-5.621a7.04 7.04 0 0 1 7.04-7.04h.839a7.04 7.04 0 0 1 7.04 7.04v5.621a7.46 7.46 0 1 1-14.92 0z"/><path id="D" d="M49.346 18.795h-.84c-.275.001-.55.017-.824.05 3.5.409 6.217 3.392 6.217 7.012v5.576a7.48 7.48 0 0 1-6.217 7.379c.411.069.827.104 1.243.104 4.12 0 7.46-3.35 7.46-7.483v-5.576c0-3.9-3.152-7.062-7.04-7.062z"/><path id="E" d="M45.819 41.587h6.212l-3.106 8.803-3.106-8.803z"/><path id="F" d="M48.926 50.391l-2.285-9.645-2.5.842v3.718l4.785 5.085zm0 0l2.285-9.645 2.5.842v3.718l-4.785 5.085z"/></defs></svg>
